src/images/std-icons/std-notifications.svg

<svg xmlns="http://www.w3.org/2000/svg" width="512" height="512" viewBox="0 0 512 512">
  <title>notifications</title>
  <path fill="#000" fill-rule="nonzero" d="M256,448.000002 C279.535555,447.931109 298.597776,428.868888 298.666667,405.333333 L213.333332,405.333333 C213.330163,416.650208 217.82437,427.504484 225.82661,435.506723 C233.828849,443.508963 244.683125,448.00317 256,448.000002 Z M384,320 L384,245.316693 C384,179.82336 349.013333,124.996693 288,110.490027 L288,95.98336 C288,78.310248 273.673112,63.98336 256,63.98336 C238.326888,63.98336 224,78.310248 224,95.98336 L224,110.490027 C162.773333,124.996693 128,179.610027 128,245.316693 L128,320 L100.48,347.52 C94.3573842,353.597153 92.4965775,362.763188 95.764709,370.746766 C99.0328405,378.730345 106.786825,383.960501 115.413333,384 L396.373333,384 C405.009908,383.98753 412.792241,378.784174 416.104065,370.807809 C419.415889,362.831443 417.60781,353.646104 411.52,347.52 L384,320 Z"/>
</svg>

<svg xmlns="http://www.w3.org/2000/svg" viewBox="0 0 512 512">
  <title>
    notifications
  </title>
  <path d="M256 448a42.8 42.8 0 0 0 42.67-42.67h-85.34A42.65 42.65 0 0 0 256 448zm128-128v-74.68c0-65.5-34.99-120.32-96-134.83v-14.5a32 32 0 1 0-64 0v14.5c-61.23 14.5-96 69.12-96 134.83V320l-27.52 27.52A21.34 21.34 0 0 0 115.41 384h280.96a21.4 21.4 0 0 0 15.15-36.48L384 320z"/>
</svg>
